**kern
*clefG2
*k[]
*M4/4
*MM78
=1
1r
=2
1r
=3
1r
=4
1r
=5
1r
=6
1r
=7
16cLL
16d
16e
16fJJ
[4g
8gL]
16aL
16aJJ
8gL
16fL
[16eJJ
=8
8eL]
16fL
16fJJ
2e
8r
16eLL
[16ccJJ
=9
8ccL]
16bL
[16ccJJ
4cc]
8r
16eLL
[16eJJ
8eL]
16dL
[16cJJ
=10
8cL]
16aL
16aJJ
2g
8r
16gLL
16gJJ
=11
16gLL
16f
16e
16eJJ
8eL
16fL
16eJJ
4d
8r
16fLL
16fJJ
=12
16fLL
16e
16d
16dJJ
8dL
16eL
16dJJ
2c
=13
8r
16eLL
[16cJJ
4c]
2r
=14
8r
16fLL
16fJJ
16eLL
16dJ
[8dJ
8.dL]
16cJk
8cL
16BL
[16AJJ
=15
16ALL]
16BJJ
[4.c
2c_
=16
4c]
4r
2r
=17
1r
=18
1r
=19
1r
=20
1r
=21
1r
=22
1r
=23
1r
=24
1r
=25
4r
[2.g
=26
4g]
4r
4dd
4b
=27
4g
2e
4d
=28
8eL
8c
8B
8cJ
8d
[4.e
=29
4e]
4r
8fL
8eJ
[4d
=30
4d]
4r
8eL
8cJ
[4a
=31
4a]
4r
2r
=32
1r
=33
8r
8eL
8e
8dJ
8AL
8d
8e
[8dJ
=34
8dL]
8e
8e
8fJ
8e
4.d
=35
8r
8cL
8d
8cJ
8GL
8c
8d
[8cJ
=36
8cL]
16dL
16dJJ
8dL
8cJ
8d
4e
16gLL
16gJJ
=37
16fLL
16eJJ
4.f
16cLL
16AJ
8cJ
8r
16gLL
16gJJ
=38
16fLL
16eJJ
[4f
16fLL]
16cJJ
16cLL
16GJJ
4.c
=39
12cL
12d
12eJ
8eL
8dJ
16r
16cLL
16d
16eJJ
8eL
8dJ
=40
8r
8cL
8a
8gJ
8eL
8a
8g
8eJ
=41
8f
[4.g
8.g]
16r
4r
=42
4r
8GL
16eL
[16eJJ
8eL]
16eL
16fJJ
[4g
=43
4g]
2b
[4g
=44
4g]
2a
8r
8cc
=45
8ddL
8cc
8b
8aJ
8b
[4.cc
=46
4cc]
4r
2r
=47
1r
=48
1r
=49
1r
=50
16cLL
16d
16e
16fJJ
[4g
8gL]
16aL
[16gJJ
16gLL]
16f
16e
[16eJJ
=51
16eLL]
16e
16f
16fJJ
2e
8r
16eLL
[16ccJJ
=52
8ccL]
16bL
[16ccJJ
4cc]
8r
16eLL
16eJJ
8eL
16dL
[16cJJ
=53
8cL]
16aL
16aJJ
2g
8r
16gLL
16gJJ
=54
16gLL
16f
16e
16eJJ
8eL
16fL
16eJJ
4d
8r
16fLL
16fJJ
=55
16fLL
16e
16d
16dJJ
8dL
16eL
16dJJ
2c
=56
8r
16eLL
[16cJJ
4c]
2r
=57
8r
16fLL
16fJJ
16eLL
16dJ
[8dJ
8.dL]
16cJk
8cL
16BL
[16AJJ
=58
16ALL]
16BJJ
[4.c
2c_
=59
4c]
4r
2r
=60
1r
=61
1r
=62
1r
=63
1r
=64
1r
=65
1r
=66
1r
=67
16cLL
16d
16e
16fJJ
[4g
8gL]
16aL
16aJJ
8gL
16fL
[16eJJ
=68
8eL]
16fL
16eJJ
2e
8r
16eLL
[16ccJJ
=69
8ccL]
16bL
[16ccJJ
4cc]
8r
16eLL
[16eJJ
8eL]
16dL
[16cJJ
=70
8cL]
16aL
16aJJ
2g
8r
16gLL
16gJJ
=71
16gLL
16f
16e
16eJJ
8eL
16fL
16eJJ
4d
8r
16fLL
16fJJ
=72
16fLL
16e
16d
16dJJ
8dL
16eL
16dJJ
2c
=73
8r
16eLL
[16fJJ
8fL]
16eL
[16fJJ
8fL]
16eL
16fJJ
8fL
16eL
[16cJJ
=74
16cLL]
16AJJ
4.d
2r
=75
16eLL
16g
16cc
16ddJJ
[4ee
8eeL]
16ffL
[16eeJJ
8eeL]
16ddL
[16ccJJ
=76
16ccLL]
16g
16dd
16ccJJ
2b
8r
16bLL
[16eeJJ
=77
8eeL]
16ddL
[16eeJJ
4ee]
8r
16ccLL
16ccJJ
8ccL
16bL
[16aJJ
=78
8aL]
16ddL
16ccJJ
8bL
8aJ
8g
4cc
16gLL
16gJJ
=79
16gLL
16f
16e
16eJJ
8eL
16fL
16eJJ
4d
8r
16fLL
16fJJ
=80
16fLL
16e
16d
16dJJ
8dL
16eL
16dJJ
2c
=81
8r
16eLL
[16cJJ
4c]
2r
=82
8r
16fLL
16fJJ
16eLL
16dJ
[8dJ
8.dL]
16cJk
8cL
16BL
[16AJJ
=83
16ALL]
16BJJ
[4.c
2c_
=84
4c]
4r
2r
==
*-
